X:80
T:Prime of Life
T:Dance
S:John Moore's Book 2
Z:Transcribed by Edmund Spriggs 05/2021
%%VWML: Moore1-4494-p62-0
F:http://www.vwml.org/record/Moore2/4494/p62
N:The sharp sign in bar 4 is redundant.
M:C
L:1/8
K:G
d2dB (dB)dg|(gd)dBG2G2|A2AB (cB)ce|(ed) d^FG2G2:|
|:.d2.g2.f2.g2|.f2.g2a3b|c'2b2a2(bg)|fdef g2g2:|

